X:1
T:September Song
T:Maxwell Anderson
T:Kurt Weill Arr. G.C. Wilkinson 
T:September Song Alto part 
C:Kurt Weill
Z:Maxwell Anderson
L:1/8
M:4/4
K:Bb
V:1 treble nm="Alto" snm="A."
V:1
!p! z2"_con espressione" B,2 B,2 D2 | _D2 _D2 _D4 | z2 B,2 (3B,2 _D2 _D2 | D3 D- D4 | %4
w: Oh, it's a|long, long while|From May to De-|cem- ber, _|
 z2!<(! B,B, D2 F2!<)! | =E8- | E2!>(! B,2 (3G,2 G,2 A,2!>)! | B,3 B,- B,4 | z2 B,B, B,2 D2 | %9
w: But the days grow|short|_ When you reach Sep-|tem ber. _|When the au- tumn|
 _D3 D- D4 | z2 B,B, _D2 D2 | D8 | z2!<(! D2 DD F2!<)! | B8- | B2 B,B, B,2 A,2 | B,8 | %16
w: wea- ther _|turns the leaves to|flame,|One has- n't got|time|_ for the wait- ing|game.|
!mp! z4 F2 F2 | _G2 GG G4 | G4 _G2 G2 | =G3 G G4- |"_cresc." G4 z2 z G | _G4 G4 | z4 z2 z _G | %23
w: Oh, the|days dwin- dle down|_ to a|pre- cious few,|_ Sep-|tem- ber,|No-|
!f!!<(! =G4 !fermata!G4!<)! |!p! z2 B,2 D2 F2 | D3 D D4 | z2 B,2 _D2 D2 | =D8 | %28
w: vem- ber!|And these few|pre- cious days|I'll spend with|you,|
 z2!<(! B,2 D2 F2!<)! | B6!mf! =E2 | _G4 G4 |1"_a tempo" G8 ||1 z8"^(Back to Verse)" :|2 G8 || %34
w: These pre- cious|days I'll|spend with|you.||you.|
 F6 z2 |] %35
w: _|

